!!!OTL-incipit: ICK SAG (SAH) MINEN HERRN VON FALKENSTEEN
!!!ARE: Europa, Mitteleuropa, Deutschland, Westfalen
!!!SCT: Z0086
!!!YEM: Copyright 1995, estate of Helmut Schaffrath.
**kern	**text
*ICvox	*
*M4/4	*
*met(c)	*
*k[b-e-]	*
*F:	*
!LO:TX:a:t=Weſtphäliſch.	!
!LO:TX:a:t=Aus dem Anfange des 15. Jahrhunderts.	!
{4f	Jck
=1	=1
4f	ſag
8g	mi-
8g	-nen
4a	Herrn
4b-	von
=2	=2
4cc	Fal-
4cc	-kenſteen
4f}	.
{4g	to
=3	=3
(4a	ſi-
4dd	.
4cc)	.
4f	-ner
=4	=4
(4.f	Borg
16e-L	.
16dJ	.
4e-)	.
4f	up-
=5	=5
1d	-rie-
=6	=6
2.c}	-den,
{4cc	'nen
=7	=7
4cc	Schild
8cc	för-
8cc	-te
4dd	he
4cc	be-
=8	=8
8cc	-ne-
8cc	-ben
4b-/	ſick
4a}	her,
{4dd	blank
=9	=9
4cc	Swerd
4g	an
4a	ſi-
4f	-ner
=10	=10
4e-	Si-
4f	.
4g	-den,
4a	ja
=11	=11
(4a	Si-
8gL	.
8fJ	.
2g)	.
=12	=12
2.f}	-den.
==	==
!!!AGN: Sagen - Lied, Romanze
!!!ONB: ESAC (Essen Associative Code) Database: ZUCCAL
!!!AMT: simple quadruple
!!!AIN: vox
!!!EED: Helmut Schaffrath
!!!EEV: 1.0
!!!GTL: I. Ernste Romanzen und Sagen.
!!!URL-scan: https://www.digitale-sammlungen.de/de/view/bsb11160571?page=172
!!!ENC: Anna Maria Matuszewska
!!!EEV: 2025/01/27
*-	*-
